X: 18
%
U:~=!turn!
U:k=!crescendo(!
U:n=!crescendo)!
U:m=!diminuendo(!
U:p=!diminuendo)!
T: The Auld Wheel
C:James Scott Skinner
O:Scotland
B:Keith Norman MacDonald : "The Skye collection of the best reels & strathspeys extant" : 1887
Z:Ralph Palmer
R:Reel
M:C
L:1/8
K:D
!p!A !segno!| d/d/d (AG FG) .A.c | B/B/B (ed) .c.A.A.c | d/d/d (AF) GA Bd | cdec dDDA | d/d/d (AG) .F.G .A.d |
B/B/B (ed) cAAc | d/d/d (AF) .G.A .B.g | fedc dDD || Lg | !f!fDFA dfaf | LeEGB dfge |
LfDFA dfaf | efga fddg | fDFA dfaf | eEGB efga | mbagf edcB | AGFE pDkABnc !segno!|]


